X:1
T:Shildon, CM
T:Shildon, CM
T:W. Heslop, 1889
T:Public Domain Courtesy of the Cyber Hymnal™
C:W. Heslop, 1889
Z:Public Domain
Z:Courtesy of the Cyber Hymnal™
%%score ( 1 2 ) ( 3 4 )
L:1/8
M:3/4
K:Ab
V:1 treble 
V:2 treble 
V:3 bass 
V:4 bass 
V:1
 [CE]2 | [Ec]4 [DB]2 | [CA]4 [DF]2 | E4 [DE]2 | [CE]4 [EA]2 | [EA]4 [EG]2 | (A2 B2) [Ec]2 | %7
 [EB]4 [Ec]2 | [Ee]4 [Ed]2 | [Ec]4 [DB]2 | [CA]4 [FB]2 | [=Ec]4 [Fc]2 | ([Fd]2 [EF]2) [FB]2 | %13
 [EA]4 [EG]2 | [EA]4 |] %15
V:2
 x2 | x6 | x6 | (C2 B,2) x2 | x6 | x6 | E4 x2 | x6 | x6 | x6 | x6 | x6 | x6 | x6 | x4 |] %15
V:3
 [A,,A,]2 | A,4 [E,G,]2 | [F,A,]4 [D,A,]2 | (A,2 G,2) [E,B,]2 | [A,,A,]4 [A,C]2 | [E,C]4 [D,B,]2 | %6
 ([C,A,]2 [B,,G,]2) [A,,A,]2 | [E,G,]4 A,2 | [G,B,]4 [G,B,]2 | A,4 [E,G,]2 | A,4 [D,F,]2 | %11
 [C,G,]4 [F,=A,]2 | ([B,,B,]2 [C,=A,]2) [D,B,]2 | (C2 B,2) [E,D]2 | [A,,C]4 |] %15
V:4
 x2 | A,4 x2 | x6 | E,4 x2 | x6 | x6 | x6 | x4 A,2 | x6 | A,4 x2 | F,2 E,2 x2 | x6 | x6 | E,4 x2 | %14
 x4 |] %15

